X: 32455
T: Piss Upon The Grass
R: jig
M: 6/8
K: Gmajor
|:"G" G2G G2B|d2B GFG|"Am" A2A A2B|"D" A2B AFD|
"Em" G2G G2B|"G" d2B GAB|"Am" A2G F2E|"D" D3 D3:|
|:"Am" A2G A2B|A2B "D" AFD|"G" G2A B2c|d2e dBG|
"C" c2B c2d|e2f gfe|"D" dcB AGF|"C" G3 "G" G3:|

